!!!COM:	Josquin des Pres
**kern	**kern
*part2	*part1
*staff2	*staff1
*clefGv2	*clefG2
*k[]	*k[]
*M2/1	*M2/1
=1-	=1-
1A	0a
[1c	.
=2	=2
2c]	1.g
2d	.
1e	.
.	4f
.	4e
=3	=3
1.f	1d
.	1d
4e	.
4d	.
=4	=4
1e	2c
.	2.g
1c	.
.	4e
.	[2a
=5	=5
1d	4a]
.	4g
.	4f
.	4e
1d	1f
=6	=6
1e	1g
1c	1e
=7	=7
2.d	2d
.	1f
4c	.
2A	.
2B	2g
=8	=8
2A	2.a
2d	.
.	4g
2c	2e
2d	[2f
=9	=9
2.A	4f]
.	4g
.	2a
4c	.
2B	2d
[2A	2e
=10	=10
2A]	2f
2G	1e
1F	.
.	2d
=11	=11
0E	0e
==	==
*-	*-
